X: 5
T: Galloping Horses
M:6/8
L:1/8
R:Quadrille
S: Viola "Mom" Ruth - Pioneer Western Folk Tunes (1948)
Z:AK/Fiddler's Companion
K:D
DFA DFA|DGB DGB|DFA DFA|A,CE EFE|DFA DFA|DGB B2B| A2d cBA|(d3d2):|
|:e|fed AFA|BFB A2f|gfe ABc|dcB A2A|fed AFA|BFB A2A| gfe ABc|d3 d2:|

%%sep 1 1 500
